www/assets/icons/subject.svg

<svg xmlns="http://www.w3.org/2000/svg" width="24" height="24" viewBox="0 0 24 24" fill='currentColor'><path d="M14 17H4v2h10zm6-8H4v2h16zM4 15h16v-2H4zM4 5v2h16V5z"/></svg>

<svg width="24" height="24" viewBox="0 0 24 24" xmlns="http://www.w3.org/2000/svg" fill='currentColor'><path d="M14 17H4V19H14V17ZM20 9H4V11H20V9ZM4 15H20V13H4V15ZM4 5V7H20V5H4Z"/></svg>
